X: 19239
T: It's All Your Fault
R: reel
M: 4/4
K: Amajor
e2 cA BcAE|~F3 A EFAB|c2 ec fcec|dF ~F2 EFAc|
e2 cA BcAE|~F3 E FABc|d2 fd ecAF|1 EFAB ceaf:|2 ~E3 F ABce||
a2 ea fecB|ABcB AFFA|EFAc BcAF|~E3 F ABce|
a2 ea fecB|ABcB AFFE|FAdf ecAF|~E3 F ABce|
a2 ea fecB|ABcB AFFA|EFAc Bcec|fcea fece|
f2 af ecAc|dBcA BAFE|FAdf ecAF|EFAB ceaf||

